X:1
T:Hoffnung
T:André Vierendeels
T:Melody by Georg Vogler (1625) (Soprano voice)
T:Source : Catechismus---Würzburg---J.Volmari---1652. Editor : André Vierendeels (21/09/17).
T:Notes: Original clefs : C1, other voices supplied editorially Original note values have been halved Text Middle German 
T:Hoffnung
T:©
T:©
C:André Vierendeels
Z:©
%%score [ 1 2 3 ]
L:1/8
Q:1/4=120
M:2/2
K:F
V:1 treble nm="Soprano" snm="S"
V:2 treble nm="Alto" snm="A"
V:3 bass nm="Bass" snm="B"
V:1
"^1)" F4 F2 c2 | A2 F2 G2 G2 | A8 || c4 B2 A2 | G4 !fermata!F4 | B4 B2 B2 | B2 G2 A2 B2 | %7
w: Hoff- nung sich|in die Höh auff-|richt.|Je- su wir|hof- fens,|gleich wir ein|Ed- ler Stamm auff-|
w: Auff Gott und|ew'- gen Le- bens|Cron.|||||
 !fermata!c4 B2 A2 | G4 F2 c2 | d3 c B2 A2 | G4 !fermata!F4 |] %11
w: bricht, in dich|Je- su, gib|Je- su recht zu|hof fen.|
w: ||||
V:2
"^2)""^1)" F4 D2 E2 | F2 DE F2 E2 | F8 || A4 D2 F2 | C4 !fermata!A,4 | D4 D2 F2 | D2 E2 D2 D2 | %7
w: Hoff- nung sich|in die _ Höh auff-|richt.|Je- su wir|Hof- fens,|gleich wir ein|Ed- ler Stamm auff-|
w: Auff Gü- ter|un- sers _ Deyls und|Lohn.|||||
 !fermata!A4 D2 F2 | E4 C2 E2 | F2 G2 D2 F2 | F2 E2 !fermata!C4 |] %11
w: bricht, in dich|Je- su, gib|Je- su recht zu|hof- * fen.|
w: ||||
V:3
"^3)""^1)""^4)" F,4 D,2 C,2 | F,2 D,2 C,2 C,2 | F,8 || F,4 G,2 D,2 | E,4 !fermata!F,4 | %5
w: Hoff- nung sich|in die Höh auff-|richt.|Je- su wir|Hof- fens,|
w: Gib was das|Vat- ter un- ser|lehrt.|||
 B,4 G,2 B,2 | G,2 C,2 F,2 B,2 | !fermata!F,4 B,2 D,2 | C,4 F,2 C,2 | B,,3 C, G,2 D,2 | %10
w: gleich wir ein|Ed- ler Stamm auff-|bricht, in dich|Je- su, gigb|Je- su recht zu|
w: |||||
 C,4 !fermata!F,4 |] %11
w: hof- fen.|
w: |

